static/assets/images/tokens/usd+.svg

<svg width="256" height="256" viewBox="0 0 256 256" fill="none" xmlns="http://www.w3.org/2000/svg">
<path d="M127.999 256C198.692 256 256 198.693 256 128C256 57.3076 198.692 0 127.999 0C57.3075 0 0 57.3076 0 128C0 198.693 57.3075 256 127.999 256Z" fill="#001845"/>
<path d="M194.947 192.145C138.189 203.611 82.7396 166.825 71.2045 110.398C65.4345 83.0564 71.3602 55.748 85.4579 33.6954C42.7124 53.3408 17.4325 100.361 27.2365 148.645C38.7714 205.072 94.2216 241.858 150.978 230.391C180.235 224.661 203.676 207.285 218.946 184.074C211.334 187.541 203.723 190.426 194.947 192.145Z" fill="url(#paint0_linear_4193_3594)"/>
<path d="M121.287 185.343C102.408 183.246 90.5317 170.645 89.475 153.741C89.3895 152.371 90.5098 151.256 91.8813 151.256H101.759C103.131 151.256 104.231 152.37 104.337 153.737C105.288 165.987 113.44 173.248 127.884 173.248C143.279 173.248 151.526 165.001 151.526 155.104C151.526 127.064 90.4976 141.359 90.4976 100.124C90.4976 86.3789 103.143 72.0839 121.287 69.8847V55.8739C121.287 54.5024 122.398 53.3906 123.77 53.3906H131.449C132.821 53.3906 133.932 54.5024 133.932 55.8739V69.8847C150.142 72.4991 161.875 85.5563 162.985 101.489C163.081 102.858 161.959 103.973 160.589 103.973H150.71C149.339 103.973 148.241 102.857 148.105 101.492C146.973 90.1238 138.111 81.9805 127.335 81.9805C113.589 81.9805 104.793 91.3271 104.793 100.124C104.793 128.164 165.821 113.869 165.821 155.104C165.821 169.949 153.725 183.144 133.932 185.893V199.904C133.932 201.276 132.821 202.387 131.449 202.387H123.77C122.398 202.387 121.287 201.276 121.287 199.904V185.343Z" fill="white"/>
<path fill-rule="evenodd" clip-rule="evenodd" d="M226.535 174.146L233.252 178.918C234.765 179.993 234.608 182.286 232.961 183.144L211.217 194.474C209.489 195.373 207.446 194.026 207.592 192.085L209.507 166.67C209.652 164.743 211.846 163.712 213.42 164.832L219.444 169.11C234.82 134.166 229.137 91.9338 201.617 62.0787C164.843 22.1817 102.88 19.367 62.6464 55.5445C62.1365 56.003 61.3475 55.9753 60.8828 55.4711L56.7823 51.0227C56.3175 50.5184 56.3532 49.7286 56.8626 49.2696C100.561 9.89822 167.922 12.9328 207.893 56.2952C238.214 89.1896 244.117 135.9 226.535 174.146Z" fill="#23DD00"/>
<path fill-rule="evenodd" clip-rule="evenodd" d="M32.5568 82.1101L25.8398 77.339C24.3266 76.2642 24.4843 73.9698 26.1303 73.1122L47.8756 61.7827C49.6023 60.8832 51.6455 62.2301 51.4992 64.1717L49.5849 89.5867C49.4397 91.5137 47.246 92.5438 45.6706 91.4247L39.6477 87.1467C24.2716 122.091 29.9542 164.323 57.4736 194.177C94.2495 234.075 156.212 236.89 196.445 200.712C196.955 200.254 197.743 200.281 198.209 200.785L202.309 205.234C202.775 205.738 202.739 206.528 202.23 206.987C158.53 246.359 91.1694 243.324 51.1993 199.961C20.878 167.067 14.9739 120.356 32.5568 82.1101Z" fill="#23DD00"/>
<defs>
<linearGradient id="paint0_linear_4193_3594" x1="-7.36324" y1="284.996" x2="144.406" y2="104.21" gradientUnits="userSpaceOnUse">
<stop offset="0.0729167" stop-color="#FFD923"/>
<stop offset="0.4775" stop-color="#0466C8"/>
<stop offset="1" stop-color="#001845"/>
</linearGradient>
</defs>
</svg>

<svg xmlns="http://www.w3.org/2000/svg" fill="none" viewBox="0 0 256 256"><path fill="#001845" d="M127.999 256C198.692 256 256 198.693 256 128 256 57.308 198.692 0 127.999 0 57.308 0 0 57.308 0 128s57.308 128 127.999 128"/><path fill="url(#paint0_linear_4193_3594)" d="M194.947 192.145c-56.758 11.466-112.207-25.32-123.742-81.747-5.77-27.342.155-54.65 14.253-76.703-42.746 19.646-68.025 66.666-58.221 114.95 11.534 56.427 66.985 93.213 123.741 81.746 29.257-5.73 52.698-23.106 67.968-46.317-7.612 3.467-15.223 6.352-23.999 8.071"/><path fill="#fff" d="M121.287 185.343c-18.879-2.097-30.755-14.698-31.812-31.602-.085-1.37 1.035-2.485 2.406-2.485h9.878c1.372 0 2.472 1.114 2.578 2.481.951 12.25 9.103 19.511 23.547 19.511 15.395 0 23.642-8.247 23.642-18.144 0-28.04-61.028-13.745-61.028-54.98 0-13.745 12.645-28.04 30.789-30.24v-14.01a2.483 2.483 0 0 1 2.483-2.483h7.679a2.483 2.483 0 0 1 2.483 2.483v14.01c16.21 2.615 27.943 15.672 29.053 31.605.096 1.369-1.026 2.484-2.396 2.484h-9.879c-1.371 0-2.469-1.116-2.605-2.481-1.132-11.368-9.994-19.511-20.77-19.511-13.746 0-22.542 9.346-22.542 18.143 0 28.04 61.028 13.745 61.028 54.98 0 14.845-12.096 28.04-31.889 30.789v14.011a2.48 2.48 0 0 1-2.483 2.483h-7.679a2.48 2.48 0 0 1-2.483-2.483z"/><path fill="#23DD00" fill-rule="evenodd" d="m226.535 174.146 6.717 4.772c1.513 1.075 1.356 3.368-.291 4.226l-21.744 11.33c-1.728.899-3.771-.448-3.625-2.389l1.915-25.415c.145-1.927 2.339-2.958 3.913-1.838l6.024 4.278c15.376-34.944 9.693-77.176-17.827-107.031-36.774-39.897-98.737-42.712-138.97-6.535-.51.459-1.3.431-1.764-.073l-4.1-4.448a1.236 1.236 0 0 1 .08-1.753c43.698-39.372 111.059-36.337 151.03 7.025 30.321 32.895 36.224 79.605 18.642 117.851M32.557 82.11l-6.717-4.77c-1.513-1.075-1.356-3.37.29-4.227l21.746-11.33c1.726-.899 3.77.448 3.623 2.39l-1.914 25.415c-.145 1.927-2.339 2.957-3.914 1.838l-6.023-4.278c-15.376 34.944-9.694 77.176 17.826 107.03 36.776 39.898 98.738 42.713 138.971 6.535a1.26 1.26 0 0 1 1.764.073l4.1 4.449c.466.504.43 1.294-.079 1.753-43.7 39.372-111.06 36.337-151.03-7.026-30.322-32.894-36.226-79.605-18.643-117.85" clip-rule="evenodd"/><defs><linearGradient id="paint0_linear_4193_3594" x1="-7.363" x2="144.406" y1="284.996" y2="104.21" gradientUnits="userSpaceOnUse"><stop offset=".073" stop-color="#FFD923"/><stop offset=".477" stop-color="#0466C8"/><stop offset="1" stop-color="#001845"/></linearGradient></defs></svg>
